src/custom/play.svg

<svg width="32" height="32" viewBox="0 0 32 32" fill="none" xmlns="http://www.w3.org/2000/svg">
<path d="M10.8772 8.24522C11.4121 7.93855 12.0754 7.88862 12.6032 8.27375L22.8732 14.5499C23.3796 14.8637 23.6934 15.4128 23.6934 16.0119C23.6934 16.611 23.3796 17.1602 22.8732 17.474L12.6032 23.7501C12.0754 24.071 11.4121 24.0853 10.8772 23.7786C10.3352 23.4791 10 22.9085 10 22.2881V9.67162C10 9.11532 10.3352 8.54477 10.8772 8.24522Z" />
<path fill-rule="evenodd" clip-rule="evenodd" d="M32 16C32 24.8366 24.8366 32 16 32C7.16344 32 0 24.8366 0 16C0 7.16344 7.16344 0 16 0C24.8366 0 32 7.16344 32 16ZM30 16C30 23.732 23.732 30 16 30C8.26801 30 2 23.732 2 16C2 8.26801 8.26801 2 16 2C23.732 2 30 8.26801 30 16Z" />
</svg>

<svg xmlns="http://www.w3.org/2000/svg" viewBox="0 0 32 32">
  <path d="M10.877 8.245c.535-.306 1.198-.356 1.726.029l10.27 6.276c.507.314.82.863.82 1.462s-.313 1.148-.82 1.462l-10.27 6.276a1.7 1.7 0 0 1-1.726.029c-.542-.3-.877-.87-.877-1.49V9.671c0-.557.335-1.127.877-1.427Z"/>
  <path fill-rule="evenodd" d="M32 16c0 8.837-7.163 16-16 16S0 24.837 0 16 7.163 0 16 0s16 7.163 16 16Zm-2 0c0 7.732-6.268 14-14 14S2 23.732 2 16 8.268 2 16 2s14 6.268 14 14Z" clip-rule="evenodd"/>
</svg>
